X:107
T:Negro Boy. WM.107
M:6/8
L:1/8
Q:3/8=127
S:Wm.Mittell’s MS, New Romney,Kent,1799
R:.Jig
O:England
A:Kent
Z:vmp.Chris Partington
K:D
dAF dAF|Egf edc|dAF dfa|gec d3:|!
|:Acd ecA|dfa fed|cef gba|gec d3:|!
|:d2f d2f|aba gfe|d2fd2f|ecAd3:|

